X: 012
M: 6/8
L: 1/8
K: G
!segno!d {d}c2B |\
{B}A2{G}G F2G | c2B e2d | g2d {d}c2B | {B}A2d {d}c2B |\
!f!A F2D |\
{f}e2d ^c2d | b2a g2f | efd Ad^c | d2 |]

